dist/img/icons/mail.svg

<svg width="15" height="12" viewBox="0 0 15 12" fill="none" xmlns="http://www.w3.org/2000/svg">
<path d="M2.08929 4.48405e-09H12.0536C12.5872 -3.49372e-05 13.1007 0.204142 13.4886 0.570646C13.8765 0.93715 14.1094 1.4382 14.1396 1.971L14.1429 2.08929V9.48214C14.1429 10.0158 13.9387 10.5292 13.5722 10.9171C13.2057 11.3051 12.7047 11.538 12.1719 11.5682L12.0536 11.5714H2.08929C1.55563 11.5715 1.04218 11.3673 0.65428 11.0008C0.266379 10.6343 0.0334277 10.1332 0.00321436 9.60043L4.48405e-09 9.48214V2.08929C-3.49372e-05 1.55563 0.204142 1.04218 0.570646 0.65428C0.93715 0.266379 1.4382 0.0334277 1.971 0.00321436L2.08929 4.48405e-09H12.0536H2.08929ZM13.1786 3.79607L7.29386 6.85607C7.23685 6.88569 7.17451 6.90363 7.11048 6.90881C7.04645 6.914 6.98203 6.90634 6.921 6.88629L6.849 6.85607L0.964286 3.79607V9.48214C0.964296 9.76448 1.07047 10.0365 1.26172 10.2442C1.45298 10.4519 1.71534 10.5801 1.99671 10.6033L2.08929 10.6071H12.0536C12.336 10.6071 12.6081 10.5009 12.8158 10.3095C13.0235 10.1181 13.1516 9.85557 13.1747 9.57407L13.1786 9.48214V3.79607ZM12.0536 0.964286H2.08929C1.80695 0.964296 1.53494 1.07047 1.32725 1.26172C1.11956 1.45298 0.991375 1.71534 0.968143 1.99671L0.964286 2.08929V2.709L7.07143 5.88472L13.1786 2.709V2.08929C13.1785 1.80685 13.0723 1.53475 12.8809 1.32704C12.6895 1.11934 12.427 0.991222 12.1455 0.968143L12.0536 0.964286Z" fill="#FF5500"/>
</svg>

<svg width="15" height="12" fill="none" xmlns="http://www.w3.org/2000/svg"><path d="M2.09 0h9.964a2.09 2.09 0 012.086 1.971l.003.118v7.393a2.09 2.09 0 01-1.971 2.086l-.118.003H2.089a2.089 2.089 0 01-2.086-1.97L0 9.481V2.09A2.09 2.09 0 011.971.003L2.089 0h9.965-9.965zm11.089 3.796l-5.885 3.06a.482.482 0 01-.373.03l-.072-.03-5.885-3.06v5.686a1.125 1.125 0 001.033 1.121l.092.004h9.965a1.125 1.125 0 001.12-1.033l.005-.092V3.796zM12.054.964H2.089A1.125 1.125 0 00.97 1.997l-.005.092v.62l6.107 3.176 6.108-3.176v-.62A1.125 1.125 0 0012.145.97l-.091-.005z" fill="#F50"/></svg>
